src/icons/svg/arrow-up.svg

<svg width="20" height="20" fill="none" xmlns="http://www.w3.org/2000/svg"><path d="M9.75 4.948c-.158.072-4.737 4.677-4.799 4.826a.56.56 0 0 0 .012.476c.073.159.147.23.312.299a.546.546 0 0 0 .451 0c.086-.036.671-.598 1.899-1.825L9.4 6.95v7.669l.075.149a.584.584 0 0 0 1.05 0l.075-.149V6.95l1.775 1.774c1.228 1.227 1.813 1.789 1.899 1.825a.56.56 0 0 0 .476-.012.508.508 0 0 0 .299-.312.553.553 0 0 0-.013-.475c-.078-.166-4.673-4.763-4.813-4.815a.742.742 0 0 0-.473.013" fill-rule="evenodd" fill="#000"/></svg>

<svg width="20" height="20" viewBox="0 0 20 20" fill="none" xmlns="http://www.w3.org/2000/svg"><path d="M9.750 4.948 C 9.592 5.020,5.013 9.625,4.951 9.774 C 4.884 9.937,4.888 10.086,4.963 10.250 C 5.036 10.409,5.110 10.480,5.275 10.549 C 5.431 10.614,5.569 10.614,5.726 10.549 C 5.812 10.513,6.397 9.951,7.625 8.724 L 9.400 6.950 9.400 10.785 L 9.400 14.619 9.475 14.768 C 9.696 15.205,10.304 15.205,10.525 14.768 L 10.600 14.619 10.600 10.785 L 10.600 6.950 12.375 8.724 C 13.603 9.951,14.188 10.513,14.274 10.549 C 14.437 10.616,14.586 10.612,14.750 10.537 C 14.909 10.464,14.980 10.390,15.049 10.225 C 15.116 10.063,15.112 9.913,15.036 9.750 C 14.958 9.584,10.363 4.987,10.223 4.935 C 10.094 4.887,9.870 4.893,9.750 4.948 " stroke="none" fill-rule="evenodd" fill="black"></path></svg>
